svg/furkot/mapbox-maki/aquarium.svg

<svg viewBox="0 0 512 512" xmlns="http://www.w3.org/2000/svg"><path d="m372.054 396.814c-10.24-20.482-10.24-78.506 0-95.574 13.654-20.48 116.054 47.788 116.054 47.788 30.718 13.652 30.718-208.214 0-194.562 0 0-105.814 71.68-116.054 47.788-10.24-23.894-10.24-71.68 0-95.574 10.24-20.48 139.946-23.894 139.946-23.894 0-23.892-98.986-47.786-139.946-47.786-40.962 0-85.334 3.414-139.948 27.308-54.612 20.478-98.986 54.612-139.946 95.572s-92.16 122.88-92.16 146.772c0 23.894 51.2 95.574 126.294 126.294 75.094 30.722 112.64 37.548 153.6 44.374 37.546 3.414 88.746 0 133.12-10.24 34.132-6.826 98.986-23.894 98.986-37.546 0-6.826-129.706-10.24-139.946-30.72zm-218.454-78.506c-27.306 0-51.2-23.894-51.2-51.202 0-27.306 23.894-51.2 51.2-51.2s51.2 23.894 51.2 51.2-23.894 51.202-51.2 51.202z"/></svg>

<svg viewBox="0 0 512 512" xmlns="http://www.w3.org/2000/svg"><path d="M 372.054 396.814 C 361.814 376.332 361.814 318.308 372.054 301.24 C 385.708 280.76 488.108 349.028 488.108 349.028 C 518.826 362.68 518.826 140.814 488.108 154.466 C 488.108 154.466 382.294 226.146 372.054 202.254 C 361.814 178.36 361.814 130.574 372.054 106.68 C 382.294 86.2 512 82.786 512 82.786 C 512 58.894 413.014 35 372.054 35 C 331.092 35 286.72 38.414 232.106 62.308 C 177.494 82.786 133.12 116.92 92.16 157.88 C 51.2 198.84 0 280.76 0 304.652 C 0 328.546 51.2 400.226 126.294 430.946 C 201.388 461.668 238.934 468.494 279.894 475.32 C 317.44 478.734 368.64 475.32 413.014 465.08 C 447.146 458.254 512 441.186 512 427.534 C 512 420.708 382.294 417.294 372.054 396.814 Z M 153.6 318.308 C 126.294 318.308 102.4 294.414 102.4 267.106 C 102.4 239.8 126.294 215.906 153.6 215.906 C 180.906 215.906 204.8 239.8 204.8 267.106 C 204.8 294.412 180.906 318.308 153.6 318.308 Z"/></svg>
